public/images/logo513.svg

<svg fill="none" height="513" viewBox="0 0 513 513" width="513" xmlns="http://www.w3.org/2000/svg" xmlns:xlink="http://www.w3.org/1999/xlink"><clipPath id="a"><path d="m33 33h446v446h-446z"/></clipPath><g clip-path="url(#a)" fill="#1f335e"><g fill-opacity=".301437"><path d="m256 114.918c-3.625.013-7.107-1.262-9.67-3.543-2.564-2.281-3.998-5.378-3.983-8.604v-57.6242c0-6.7085 6.113-12.1468 13.653-12.1468s13.653 5.4383 13.653 12.1468v57.6242c0 3.222-1.438 6.312-3.999 8.59-2.56 2.278-6.033 3.557-9.654 3.557z"/><path d="m256 479c-3.625.013-7.107-1.263-9.67-3.544-2.564-2.28-3.998-5.377-3.983-8.603v-57.625c0-6.708 6.113-12.146 13.653-12.146s13.653 5.438 13.653 12.146v57.625c0 3.222-1.438 6.311-3.999 8.589-2.56 2.278-6.033 3.558-9.654 3.558z"/><path d="m321.442 131.52c-2.882-1.581-4.987-4.194-5.85-7.262s-.413-6.338 1.25-9.088l29.649-48.9547c3.475-5.6677 11.083-7.5909 17.033-4.3059s8.012 10.5464 4.616 16.2577l-29.649 48.9549c-1.643 2.752-4.367 4.764-7.567 5.589-3.201.826-6.613.397-9.482-1.191z"/><path d="m190.198 131.497c-2.893 1.611-6.335 2.046-9.562 1.209-3.228-.838-5.975-2.879-7.633-5.671l-29.749-49.8091c-2.534-5.6609-.249-12.2493 5.31-15.3137 5.56-3.0645 12.625-1.6299 16.422 3.3344l30.254 49.6634c1.645 2.837 2.038 6.191 1.09 9.309s-3.157 5.74-6.132 7.278z"/><path d="m363.562 450.064c-2.863 1.602-6.278 2.045-9.486 1.231-3.207-.814-5.94-2.818-7.59-5.565l-29.609-48.921c-2.265-3.687-2.286-8.249-.055-11.954 2.231-3.706 6.372-5.987 10.851-5.977 4.48.009 8.61 2.307 10.824 6.022l29.609 48.921c3.434 5.684 1.402 12.947-4.544 16.243z"/><path d="m131.503 190.552c-1.58 2.884-4.193 4.991-7.26 5.855s-6.337.414-9.086-1.251l-48.9431-29.626c-5.6664-3.478-7.5891-11.092-4.3049-17.048s10.5439-8.02 16.2539-4.62l49.0861 29.675c5.652 3.478 7.553 11.085 4.254 17.015z"/><path d="m450.064 363.562c-3.296 5.946-10.559 7.978-16.243 4.544l-48.921-29.609c-3.715-2.214-6.013-6.344-6.022-10.824-.01-4.479 2.271-8.62 5.977-10.851 3.705-2.231 8.267-2.21 11.954.055l48.921 29.609c2.747 1.65 4.751 4.383 5.565 7.59.814 3.208.371 6.623-1.231 9.486z"/><path d="m114.918 256c0 7.54-5.438 13.653-12.147 13.653h-57.6242c-6.7085 0-12.1468-6.113-12.1468-13.653s5.4383-13.653 12.1468-13.653h57.6242c3.226-.015 6.323 1.419 8.604 3.983 2.281 2.563 3.556 6.045 3.543 9.67z"/><path d="m479 256c0 7.54-5.438 13.653-12.147 13.653h-57.625c-6.708 0-12.146-6.113-12.146-13.653s5.438-13.653 12.146-13.653h57.625c3.226-.015 6.323 1.419 8.603 3.983 2.281 2.563 3.557 6.045 3.544 9.67z"/><path d="m131.505 321.437c1.603 2.895 2.036 6.34 1.203 9.569-.834 3.23-2.864 5.979-5.642 7.638l-49.5501 29.924c-5.6969 2.81-12.5026.563-15.6237-5.159s-1.5066-12.993 3.7065-16.691l49.5503-29.923c5.748-3.394 13.037-1.325 16.356 4.642z"/><path d="m450.103 148.245c3.274 5.936 1.333 13.525-4.337 16.957l-48.947 29.923c-3.689 2.262-8.253 2.284-11.961.055-3.707-2.228-5.99-6.365-5.98-10.839.009-4.474 2.309-8.599 6.026-10.811l48.947-29.574c5.625-3.473 12.874-1.56 16.252 4.289z"/></g><path d="m173.042 441.811-36.596-20.242c-1.534-.851-2.65-2.252-3.102-3.893-.453-1.641-.205-3.386.689-4.852l26.28-39.844c1.874-3.058 5.967-4.108 9.188-2.358l33.312 18.62c2.99 1.83 3.998 5.56 2.309 8.548l-23.097 41.663c-1.849 2.965-5.812 4.006-8.983 2.358z"/><path d="m332.483 215.953c1.179-1.864 1.179-4.229 0-6.094-3.91-6.391-14.184-14.367-32.679-24.772-18.495-10.404-30.976-15.507-38.444-15.556-2.121.015-4.055 1.201-5.012 3.071l-68.065 169.193c-1.215 2.465-.35 5.438 2.004 6.887l20.049 11.395c2.455 1.226 5.447.513 7.067-1.684z"/></g></svg>

<svg width="513" height="513" viewBox="0 0 513 513" fill="none" xmlns="http://www.w3.org/2000/svg">
<g clip-path="url(#clip0_1_18)">
<path d="M256 114.918C252.375 114.931 248.893 113.656 246.33 111.375C243.766 109.094 242.332 105.997 242.347 102.771V45.1468C242.347 38.4383 248.46 33 256 33C263.54 33 269.653 38.4383 269.653 45.1468V102.771C269.653 105.993 268.215 109.083 265.654 111.361C263.094 113.639 259.621 114.918 256 114.918Z" fill="#1F335E" fill-opacity="0.301437"/>
<path d="M256 479C252.375 479.013 248.893 477.737 246.33 475.456C243.766 473.176 242.332 470.079 242.347 466.853V409.228C242.347 402.52 248.46 397.082 256 397.082C263.54 397.082 269.653 402.52 269.653 409.228V466.853C269.653 470.075 268.215 473.164 265.654 475.442C263.094 477.72 259.621 479 256 479Z" fill="#1F335E" fill-opacity="0.301437"/>
<path d="M321.442 131.52C318.56 129.939 316.455 127.326 315.592 124.258C314.729 121.19 315.179 117.92 316.842 115.17L346.491 66.2153C349.966 60.5476 357.574 58.6244 363.524 61.9094C369.474 65.1944 371.536 72.4558 368.14 78.1671L338.491 127.122C336.848 129.874 334.124 131.886 330.924 132.711C327.723 133.537 324.311 133.108 321.442 131.52Z" fill="#1F335E" fill-opacity="0.301437"/>
<path d="M190.198 131.497C187.305 133.108 183.863 133.543 180.636 132.706C177.408 131.868 174.661 129.827 173.003 127.035L143.254 77.2259C140.72 71.565 143.005 64.9766 148.564 61.9122C154.124 58.8477 161.189 60.2823 164.986 65.2466L195.24 114.91C196.885 117.747 197.278 121.101 196.33 124.219C195.382 127.337 193.173 129.959 190.198 131.497Z" fill="#1F335E" fill-opacity="0.301437"/>
<path d="M363.562 450.064C360.699 451.666 357.284 452.109 354.076 451.295C350.869 450.481 348.136 448.477 346.486 445.73L316.877 396.809C314.612 393.122 314.591 388.56 316.822 384.855C319.053 381.149 323.194 378.868 327.673 378.878C332.153 378.887 336.283 381.185 338.497 384.9L368.106 433.821C371.54 439.505 369.508 446.768 363.562 450.064Z" fill="#1F335E" fill-opacity="0.301437"/>
<path d="M131.503 190.552C129.923 193.436 127.31 195.543 124.243 196.407C121.176 197.271 117.906 196.821 115.157 195.156L66.2139 165.53C60.5475 162.052 58.6248 154.438 61.909 148.482C65.1932 142.526 72.4529 140.462 78.1629 143.862L127.249 173.537C132.901 177.015 134.802 184.622 131.503 190.552Z" fill="#1F335E" fill-opacity="0.301437"/>
<path d="M450.064 363.562C446.768 369.508 439.505 371.54 433.821 368.106L384.9 338.497C381.185 336.283 378.887 332.153 378.878 327.673C378.868 323.194 381.149 319.053 384.855 316.822C388.56 314.591 393.122 314.612 396.809 316.877L445.73 346.486C448.477 348.136 450.481 350.869 451.295 354.076C452.109 357.284 451.666 360.699 450.064 363.562Z" fill="#1F335E" fill-opacity="0.301437"/>
<path d="M114.918 256C114.918 263.54 109.48 269.653 102.771 269.653H45.1468C38.4383 269.653 33 263.54 33 256C33 248.46 38.4383 242.347 45.1468 242.347H102.771C105.997 242.332 109.094 243.766 111.375 246.33C113.656 248.893 114.931 252.375 114.918 256Z" fill="#1F335E" fill-opacity="0.301437"/>
<path d="M479 256C479 263.54 473.562 269.653 466.853 269.653H409.228C402.52 269.653 397.082 263.54 397.082 256C397.082 248.46 402.52 242.347 409.228 242.347H466.853C470.079 242.332 473.176 243.766 475.456 246.33C477.737 248.893 479.013 252.375 479 256Z" fill="#1F335E" fill-opacity="0.301437"/>
<path d="M131.505 321.437C133.108 324.332 133.541 327.777 132.708 331.006C131.874 334.236 129.844 336.985 127.066 338.644L77.5159 368.568C71.819 371.378 65.0133 369.131 61.8922 363.409C58.7711 357.687 60.3856 350.416 65.5987 346.718L115.149 316.795C120.897 313.401 128.186 315.47 131.505 321.437Z" fill="#1F335E" fill-opacity="0.301437"/>
<path d="M450.103 148.245C453.377 154.181 451.436 161.77 445.766 165.202L396.819 195.125C393.13 197.387 388.566 197.409 384.858 195.18C381.151 192.952 378.868 188.815 378.878 184.341C378.887 179.867 381.187 175.742 384.904 173.53L433.851 143.956C439.476 140.483 446.725 142.396 450.103 148.245Z" fill="#1F335E" fill-opacity="0.301437"/>
<path d="M173.042 441.811L136.446 421.569C134.912 420.718 133.796 419.317 133.344 417.676C132.891 416.035 133.139 414.29 134.033 412.824L160.313 372.98C162.187 369.922 166.28 368.872 169.501 370.622L202.813 389.242C205.803 391.072 206.811 394.802 205.122 397.79L182.025 439.453C180.176 442.418 176.213 443.459 173.042 441.811Z" fill="#1F335E"/>
<path d="M332.483 215.953C333.662 214.089 333.662 211.724 332.483 209.859C328.573 203.468 318.299 195.492 299.804 185.087C281.309 174.683 268.828 169.58 261.36 169.531C259.239 169.546 257.305 170.732 256.348 172.602L188.283 341.795C187.068 344.26 187.933 347.233 190.287 348.682L210.336 360.077C212.791 361.303 215.783 360.59 217.403 358.393L332.483 215.953Z" fill="#1F335E"/>
</g>
<defs>
<clipPath id="clip0_1_18">
<rect width="446" height="446" fill="white" transform="translate(33 33)"/>
</clipPath>
</defs>
</svg>
